X:1
T:[ID 3-21]
T:[ID 3-21]
T:Bezeichnung standardisiert: Menuett Men: 14.
T:Urheber unbekannt Datum in der hier transkribierten schriftlichen Quelle: 1767
C:Urheber unbekannt
C:Datum in der hier transkribierten schriftlichen Quelle: 1767
%%score 1 2
L:1/8
M:3/4
K:D
V:1 treble nm="Primo"
V:2 treble nm="Secondo"
V:1
 d4 e2 | f2 e2 d2 | gbagfe | f2 e2 d2 | gbagfe | fg a2 d2 | cd e2 d2 | e6 :: c4 d2 | e2 dcBA | %10
 c2 c2 d2 | e2 dcBA | de f2 A2 | B2 c2 d2 | egfedc | d6 :| %16
V:2
 !fermata!F4 A2 | d2 A2 F2 | egfedc | d2 A2 F2 | egfedc | de f2 F2 | AB c2 B2 | c6 :: AEAEBE | %9
 cEBA^GA | AEAEBE | cEBA^GA | FA d2 F2 | G2 E2 F2 | GBAGFE | F6 :| %16

